app/javascript/pages/sgf/section-about/img/earth.svg

<svg height="140" viewBox="0 0 127 140" width="127" xmlns="http://www.w3.org/2000/svg"><g fill="none" fill-rule="evenodd" stroke-width="2" transform="translate(1 1)"><path d="m26.6791277 126.238281c3.9443602-2.916076 6.9698283-10.326598 6.9698283-10.326598s3.4067771-2.365991 4.472567-5.385208.0593842-7.119851.0593842-7.119851 3.0192171-8.8638718 1.5971221-11.3486313c-1.4220951-2.4847594-7.4574038-4.085007-7.4574038-4.085007s-2.4847594-4.6163392-7.6355564-5.5039765c-3.3755222-.3563051-6.747919-2.662912-6.747919-7.4574038s4.7944918-12.6082007 4.7944918-12.6082007 4.9726444-2.4316262 5.6821291-4.2069008c.7094848-1.7752747.9532725-5.9134149.9532725-5.9134149s4.7288566-8.3450411 2.0659447-13.1426584c-.8501316-1.5283615-4.7944918-2.662912-4.7944918-2.662912l-5.5321059-8.2981588m90.7359135 85.2256852c-6.032184-2.891072-16.5838161-5.307071-16.5838161-5.307071s-7.7105679-8.5825775-12.7707258-7.873093c-5.0601579.709485-10.2109548 6.391614-10.2109548 6.391614s.3563051 10.476621-1.2439425 11.011079c-1.5971221.531332-5.8602816-2.309733-8.5231936-.178153s-1.1282996 8.138759-1.1282996 8.138759-5.797772 1.80653-6.5072568 3.759957c-.7094847 1.953427 2.1097014 6.3041 2.6472846 7.973109" stroke="#555"/><path d="m69.7201618 12.9301255c-2.3722421-.2719171-4.7663625-.4281913-7.2104906-.4281913-34.5240914 0-62.5096712 27.9855798-62.5096712 62.5096712 0 34.5240916 27.9855798 62.5096716 62.5096712 62.5096716s62.5096708-27.98558 62.5096708-62.5096716c0-4.2319047-.42194-8.3669195-1.222064-12.3612875" stroke="#555"/><g stroke="#97bd3d" stroke-linecap="square"><circle cx="93.765" cy="28.129" r="9.376"/><path d="m121.893859 27.5042553c0 19.3779981-28.1293522 44.3818666-28.1293522 44.3818666s-28.1293521-25.0038685-28.1293521-44.3818666c0-17.4058179 14.5366241-27.5042553 28.1293521-27.5042553 13.5927282 0 28.1293522 10.0984374 28.1293522 27.5042553z"/></g></g></svg>

<svg xmlns="http://www.w3.org/2000/svg" width="127" height="140" viewBox="0 0 127 140">
  <g fill="none" fill-rule="evenodd" stroke-width="2" transform="translate(1 1)">
    <path stroke="#555555" d="M26.6791277 126.238281C30.6234879 123.322205 33.648956 115.911683 33.648956 115.911683 33.648956 115.911683 37.0557331 113.545692 38.121523 110.526475 39.1873129 107.507258 38.1809072 103.406624 38.1809072 103.406624 38.1809072 103.406624 41.2001243 94.5427522 39.7780293 92.0579927 38.3559342 89.5732333 32.3206255 87.9729857 32.3206255 87.9729857 32.3206255 87.9729857 29.8358661 83.3566465 24.6850691 82.4690092 21.3095469 82.1127041 17.9371501 79.8060972 17.9371501 75.0116054 17.9371501 70.2171136 22.7316419 62.4034047 22.7316419 62.4034047 22.7316419 62.4034047 27.7042863 59.9717785 28.413771 58.1965039 29.1232558 56.4212292 29.3670435 52.283089 29.3670435 52.283089 29.3670435 52.283089 34.0959001 43.9380479 31.4329882 39.1404306 30.5828566 37.6120691 26.6384964 36.4775186 26.6384964 36.4775186L21.1063905 28.1793598M111.842304 113.405045C105.81012 110.513973 95.2584879 108.097974 95.2584879 108.097974 95.2584879 108.097974 87.54792 99.5153965 82.4877621 100.224881 77.4276042 100.934366 72.2768073 106.616495 72.2768073 106.616495 72.2768073 106.616495 72.6331124 117.093116 71.0328648 117.627574 69.4357427 118.158906 65.1725832 115.317841 62.5096712 117.449421 59.8467592 119.581001 61.3813716 125.58818 61.3813716 125.58818 61.3813716 125.58818 55.5835996 127.39471 54.8741148 129.348137 54.1646301 131.301564 56.9838162 135.652237 57.5213994 137.321246"/>
    <path stroke="#555555" d="M69.7201618,12.9301255 C67.3479197,12.6582084 64.9537993,12.5019342 62.5096712,12.5019342 C27.9855798,12.5019342 0,40.487514 0,75.0116054 C0,109.535697 27.9855798,137.521277 62.5096712,137.521277 C97.0337626,137.521277 125.019342,109.535697 125.019342,75.0116054 C125.019342,70.7797007 124.597402,66.6446859 123.797278,62.6503179"/>
    <circle cx="93.765" cy="28.129" r="9.376" stroke="#97BD3D" stroke-linecap="square"/>
    <path stroke="#97BD3D" stroke-linecap="square" d="M121.893859,27.5042553 C121.893859,46.8822534 93.7645068,71.8861219 93.7645068,71.8861219 C93.7645068,71.8861219 65.6351547,46.8822534 65.6351547,27.5042553 C65.6351547,10.0984374 80.1717788,0 93.7645068,0 C107.357235,0 121.893859,10.0984374 121.893859,27.5042553 Z"/>
  </g>
</svg>
